X:1
T:Why should the children of a king
T:Why should the children of a king - Consolation (John Fawcett)
C:John Fawcett
Z:p60, A Second Sett of
Z:Psalm & Hymn Tunes,
Z:London: [c1814]
%%score [ ( 1 2 ) ( 3 4 ) 5 6 ]
L:1/8
M:2/2
K:A
V:1 treble nm="SOPRANO" snm="S."
V:2 treble 
V:3 treble nm="ALTO" snm="A."
V:4 treble 
V:5 treble-8 transpose=-12 nm="TENOR" snm="T."
V:6 bass nm="BASS" snm="B."
V:1
 A4 | c4 (A2 f2) | e6 d2 | (c2 B2) (A2 G2) | A6 c2 | (d2 f2) (e2 d2) | c4 ^d4 | e8 | f4 e2 d2 | %9
w: As-|sure my _|con- science|of _ her _|part In|the _ Re- *|dee- mer’s|blood,|And bear thy|
w: Why|should the _|chil- dren|of _ a _|king Go|mour- * ning _|all their|days?|Great Com- for-|
w: Dost|thou not _|dwell in|all _ the _|saints, And|seal _ the _|heirs of|heav’n?|When wilt thou|
 (c>Bcd c2) e2 | (d2 c2) (B2 A2) | (A4 G2)!p! E2 | (A>BAB c2) B2 | (c>dcd e2) c2 | d6!f! e2 | %15
w: wit- * * * * ness|with _ my _|heart, _ That|I _ _ _ _ am|born _ _ _ _ of|God, that|
w: ter, _ _ _ _ des-|cend _ and _|bring _ Some|to- * * * * kens|of _ _ _ _ thy|grace, some|
w: ba- * * * * nish|my _ com- *|plaints, _ And|show _ _ _ _ my|sins _ _ _ _ for-|giv’n, and|
 (f2 e2) (d2 c2) | c4 B4 | A8 |] %18
w: I _ am _|born of|God.|
w: to- * kens _|of thy|grace.|
w: show _ my _|sins for-|giv’n?|
V:2
 x4 | x8 | x8 | x8 | x8 | x8 | x8 | x8 | x8 | x8 | x8 | x8 | x8 | x6 E2 | F6 x2 | x8 | x8 | x8 |] %18
V:3
 E4 | E4 A4 | A6 A2 | E4 E4 | E6 E2 | A4 (A2 G2) | A4 F4 | G8 | A4 A2 G2 | A6 A2 | F4 F4 | E6 z2 | %12
w: As-|sure my|con- science|of her|part In|the Re- *|dee- mer’s|blood,|And bear thy|wit- ness|with my|heart,|
w: Why|should the|chil- dren|of a|king Go|mour- ning _|all their|days?|Great Com- for-|ter, des-|cend and|bring|
w: Dost|thou not|dwell in|all the|saints, And|seal the _|heirs of|heav’n?|When wilt thou|ba- nish|my com-|plaints,|
 z8 | z8 | z4 z2"^["!f!"^]" A2 | A4 E4 | E4 (E2 D2) | C8 |] %18
w: ||That|I am|born of _|God.|
w: ||Some|to- kens|of thy _|grace.|
w: ||And|show my|sins for- *|giv’n?|
V:4
 x4 | x8 | x8 | x8 | x8 | x8 | x8 | x8 | x8 | x8 | x8 | x8 | x8 | x8 | x8 | x8 | x8 | E8 |] %18
V:5
 c4 | A4 (c2 d2) | c6 f2 | (e2 d2) (c2 B2) | c6 A2 | (F2 d2) (c2 B2) | (A2 c2) B4 | B8 | A4 A2 B2 | %9
w: As-|sure my _|con- science|of _ her _|part In|the _ Re- *|dee- * mer’s|blood,|And bear thy|
w: Why|should the _|chil- dren|of _ a _|king Go|mour- * ning _|all _ their|days?|Great Com- for-|
w: Dost|thou not _|dwell in|all _ the _|saints, And|seal _ the _|heirs _ of|heav’n?|When wilt thou|
 (c>def e2) c2 | (f2 e2) (d2 c2) | (c4 B2) z2 | z8 | z8 | z4 z2"^["!f!"^]" (cB) | A4 (G2 A2) | %16
w: wit- * * * * ness|with _ my _|heart, _|||That _|I am _|
w: ter, _ _ _ _ des-|cend _ and _|bring _|||Some _|to- kens _|
w: ba- * * * * nish|my _ com- *|plaints, _|||And _|show my _|
 A4 G4 | A8 |] %18
w: born of|God.|
w: of thy|grace.|
w: sins for-|giv’n?|
V:6
 A,,4 | A,4 A,4 | (C3 B, A,2) D,2 | E,4 E,4 | A,,6 A,2 | D,4 E,4 | A,4 B,4 | E,8 | D4 C2 B,2 | %9
w: As-|sure my|con- * * science|of her|part In|the Re-|dee- mer’s|blood,|And bear thy|
w: Why|should the|chil- * * dren|of a|king Go|mour- ning|all their|days?|Great Com- for-|
w: Dost|thou not|dwell _ _ in|all the|saints, And|seal the|heirs of|heav’n?|When wilt thou|
 A,6 C,2 | D,4 ^D,4 | E,6"^[Inst.]""^["!p!"^]" E,D, | C,>D,C,B,, A,,2"^[Voc.]" E,2 | %13
w: wit- ness|with my|heart, * *|* * * * * That|
w: ter, des-|cend and|bring * *|* * * * * Some|
w: ba- nish|my com-|plaints, * *|* * * * * And|
"^Notes:The first verse only of the text is given in the source: subsequent verses have been added editorially.The order of parts in the source is Tenor - Alto - Air - [Bass], with the vocal bass line figured, with additionalnotes on the Air [treble] and Bass staves to provide a keyboard accompaniment, and with the alto part printedin the treble clef an octave above sounding pitch. The keyboard accompaniment largely doubles the voices,and has been omitted from this edition, but some notes from it which are not sung have been included(indicated by small notes) and should be played if instruments are used to accompany the voices." (A,>B,)(A,B,) C2 A,2 | %14
w: I _ am _ born of|
w: to- * kens _ of thy|
w: show _ my _ sins for-|
 D,6"^["!f!"^]" A,2 | (D2 C2) (B,2 A,2) | E,4 E,4 | A,,8 |] %18
w: God, that|I _ am _|born of|God.|
w: grace, some|to- * kens _|of thy|grace.|
w: giv’n, and|show _ my _|sins for-|giv’n?|

